!! 00046] TT[KA
!! NN
!!!OTL: Pao han chuan
!!!ARE: Asia, China, Shanxi Shanbei
!! Ethnic Group: Han
!! I, 82
!!!SCT: C0033
!!!YEM: Copyright 1995, estate of Helmut Schaffrath.
**kern
*ICvox
*Ivox
*M2/4
*k[]
*C:
{8r
8g
8g
8e
=1
8.ee
16dd
[4ee
=2
2ee_
=3
2ee]
=4
8.cc
16dd
8ee
8ee
=5
8.ee
16dd
8dd
[8cc
=6
8cc]}
{16ee
16dd
8cc
16b
16a
=7
8g
8e
8.g
16a
=8
8cc
8cc
16a
16cc
8e
=9
2g}
=10
{8.a
16b
8a
8g
=11
8a
8b
8a
8g
=12
8.a
16cc
8.e
16d
=13
16e
16d
8e
4e}
=14
{8.ee
16ee
8dd
8ee
=15
16dd
16gg
8a
4cc}
=16
{8.ee
16dd
4cc
=17
8.ee
16dd
4cc
=18
8.ee
16dd
8.ee
16dd
=19
16ee
16gg
16ee
16gg
4cc}
=20
{8.a
16cc
8a
8g
=21
8.e
16cc
16e
16d
16e
16d
=22
2c}
==
!!!AGN: Wuge, Hanchuan. Miaoxie Wudao yanyuan
!! Wenig Verzierungen.
!!!ONB: ESAC (Essen Associative Code) Database: CHINA
!!!AMT: simple duple
!!!AIN: vox
!!!EED: Helmut Schaffrath
!!!EEV: 1.0
*-
!!!ONB: Tied note syntax fixed by Craig Sapp, 2004/05/03/
